X:1
T:Alles Gute, alles Schöne!
T:Alles Gute, alles Schöne!
T:Seiner Kaiserlichen Hoheit, dem Erzherzog Rudolph gewidmet.
T:Ludwig van Beethoven
C:Ludwig van Beethoven
%%score [ 1 2 3 4 ]
L:1/8
Q:1/4=80
M:4/4
K:C
V:1 treble nm="1"
V:2 treble nm="2"
V:3 treble nm="3"
V:4 treble nm="4"
V:1
!f!"^Vierstimmig kanon" e/ e/ e/ e/ e/ e/ f2 f2 !fermata!z!f! e/ e/ e e e2 d !fermata!z!p! c c c/ c/ B2 A2 !fermata!z || %1
w: Sei- ner Kai- ser- li- chen Ho- heit! dem Erz- her- zog Ru- dolph! dem geist- li- chen Für- sten!|
[M:4/4]"^Mässig" d B | A2 G2 z2 d e | f2 e2 z2 e f | g2 c2 z2 f e | d4 c2 z2 | d B B B (cd) d2 | %7
w: Al- les|Gu- te! Al- les|Schö- ne, al- les|Gu- te, al- les|Schö- ne!|Al- les, al- les Gu- * te,|
 A B c e f2 e2 | c3 c B2 c2 | B A (GF) E2 z2 | z2 G G (AB) B2 | z2 G c (cd) G2 | %12
w: al- les, al- les Schö- ne,|al- les Gu- te,|al- les Schö- * ne!|Al- les Gu- * te,|al- les Schö- * ne,|
 (EG) (ce) G G G3/2 G/ | G c (BG) G2 z2 |: z2 D B, A,2 G, z | z2 E C (A,B,) (CD) | z E2 E D2 C2 | %17
w: al- * les, _ al- les Gu- te,|al- les Schö- * ne!|Al- les Gu- te,|al- les Schö- * ne, _|al- les Gu- te,|
 G G G,2 C2 d B | A2 G2 z2 d e | f2 e2 z2 e f | g2 c2 z2 f e | d4 c2 z2 | d B B B (cd) d2 | %23
w: al- les Schö- ne! Al- les|Gu- te! Al- les|Schö- ne, al- les|Gu- te, al- les|Schö- ne!|Al- les, al- les Gu- * te,|
 A B c e f2 e2 | c3 c B2 c2 | B A (GF) E2 z2 | z2 G G (AB) B2 | z2 G c (cd) G2 | %28
w: al- les, al- les Schö- ne,|al- les Gu- te,|al- les Schö- * ne!|Al- les Gu- * te,|al- les Schö- * ne,|
 (EG) (ce) G G G3/2 G/ | G c (BG) G2 z2 :| %30
w: al- * les, _ al- les Gu- te,|al- les Schö- * ne!|
V:2
!f! c/ c/ c/ c/ c/ c/ c2 c2 !fermata!z!f! c/ c/ c c c2 B !fermata!z!p! A A A/ A/ ^G2 A2 !fermata!z || %1
w: Sei- ner Kai- ser- li- chen Ho- heit! dem Erz- her- zog Ru- dolph! dem geist- li- chen Für- sten!|
[M:4/4] z2 | z8 | z8 | z8 | z4 z2 d B | A2 G2 z2 d e | f2 e2 z2 e f | g2 c2 z2 f e | d4 c2 z2 | %10
w: ||||Al- les|Gu- te! Al- les|Schö- ne, al- les|Gu- te, al- les|Schö- ne!|
 d B B B (cd) d2 | A B c e f2 e2 | c3 c B2 c2 | B A (GF) E2 z2 |: z2 G G (AB) B2 | z2 G c (cd) G2 | %16
w: Al- les, al- les Gu- * te,|al- les, al- les Schö- ne,|al- les Gu- te,|al- les Schö- * ne!|Al- les Gu- * te,|al- les Schö- * ne,|
 (EG) (ce) G G G3/2 G/ | G c (BG) G2 z2 | z2 D B, A,2 G, z | z2 E C (A,B,) (CD) | z E2 E D2 C2 | %21
w: al- * les, _ al- les Gu- te,|al- les Schö- * ne!|Al- les Gu- te,|al- les Schö- * ne, _|al- les Gu- te,|
 G G G,2 C2 d B | A2 G2 z2 d e | f2 e2 z2 e f | g2 c2 z2 f e | d4 c2 z2 | d B B B (cd) d2 | %27
w: al- les Schö- ne! Al- les|Gu- te! Al- les|Schö- ne, al- les|Gu- te, al- les|Schö- ne!|Al- les, al- les Gu- * te,|
 A B c e f2 e2 | c3 c B2 c2 | B A (GF) E2 z2 :| %30
w: al- les, al- les Schö- ne,|al- les Gu- te,|al- les Schö- * ne!|
V:3
!f! G/ G/ G/ G/ G/ G/ A2 A2 !fermata!z!f! G/ G/ G G G2 G !fermata!z!p! E E E/ E/ E2 C2 !fermata!z || %1
w: Sei- ner Kai- ser- li- chen Ho- heit! dem Erz- her- zog Ru- dolph! dem geist- li- chen Für- sten!|
[M:4/4] z2 | z8 | z8 | z8 | z8 | z8 | z8 | z8 | z4 z2 d B | A2 G2 z2 d e | f2 e2 z2 e f | %12
w: ||||||||Al- les|Gu- te! Al- les|Schö- ne, al- les|
 g2 c2 z2 f e | d4 c2 z2 |: d B B B (cd) d2 | A B c e f2 e2 | c3 c B2 c2 | B A (GF) E2 z2 | %18
w: Gu- te, al- les|Schö- ne!|Al- les, al- les Gu- * te,|al- les, al- les Schö- ne,|al- les Gu- te,|al- les Schö- * ne!|
 z2 G G (AB) B2 | z2 G c cd G2 | (EG) (ce) G G G3/2 G/ | G c (BG) G2 z2 | z2 D B, A,2 G, z | %23
w: Al- les Gu- * te,|al- les Shö- * ne,|al- * les, _ al- les Gu- te,|al- les Schö- * ne!|Al- les Gu- te,|
 z2 E C (A,B,) (CD) | z E2 E D2 C2 | G G G,2 C2 d B | A2 G2 z2 d e | f2 e2 z2 e f | g2 c2 z2 f e | %29
w: al- les Schö- * ne, _|al- les Gu- te,|al- les Schö- ne! Al- les|Gu- te! Al- les|Schö- ne, al- les|Gu- te, al- les|
 d4 c2 z2 :| %30
w: Schö- ne!|
V:4
!f! C/ C/ C/ C/ C/ C/ F,2 F,2 !fermata!z!f! C/ C/ C C G,2 G, !fermata!z!p! A, A, A,/ A,/ E,2 A,2 !fermata!z || %1
w: Sei- ner Kai- ser- li- chen Ho- heit! dem Erz- her- zog Ru- dolph! dem geist- li- chen Für- sten!|
[M:4/4] z2 | z8 | z8 | z8 | z8 | z8 | z8 | z8 | z8 | z8 | z8 | z8 | z4 z2 d B |: A2 G2 z2 d e | %15
w: ||||||||||||Al- les|Gu- te! Al- les|
 f2 e2 z2 e f | g2 c2 z2 f e | d4 c2 z2 | d B B B (cd) d2 | A B c e f2 e2 | c3 c B2 c2 | %21
w: Schö- ne, al- les|Gu- te, al- les|Schö- ne!|Al- les, al- les Gu- * te,|al- les, al- les Schö- ne,|al- les Gu- te,|
 B A (GF) E2 z2 | z2 G G (AB) B2 | z2 G c (cd) G2 | (EG) (ce) G G G3/2 G/ | G c (BG) G2 z2 | %26
w: al- les Schö- * ne!|Al- les Gu- * te,|al- les Schö- * ne,|al- * les, _ al- les Gu- te,|al- les Schö- * ne!|
 z2 D B, A,2 G, z | z2 E C (A,B,) (CD) | z E2 E D2 C2 | G G G,2 C2 d B :| %30
w: Al- les Gu- te,|al- les Schö- * ne, _|al- les Gu- te,|al- les Schö- ne! Al- les|

